app/dist/common/images/rede-energiaon.svg

<svg fill="none" height="18" width="18" xmlns="http://www.w3.org/2000/svg"><path d="m0 0h18v18h-18z" fill="#f89406"/><path d="m3 7 .183-1h4.762c.977 0 2.055.5 2.055 1.5s-.75 1.402-1.484 1.741l.308 1.759h1.676l1-5h3.5l-.205 1h-2.295l-.313 1.5h1.53l-.142 1h-1.575l-.245 1.5h2.45l-.205 1h-6.634l-.366-2.5h-.652l.183-1h1.011c.44 0 .9-.342.958-.737 0-.383-.366-.763-.76-.763z" fill="#f0f3fa"/></svg>

<!-- by TradingView --><svg width="18" height="18" fill="none" xmlns="http://www.w3.org/2000/svg"><path fill="#F89406" d="M0 0h18v18H0z"/><path d="m3 7 .183-1h4.762C8.922 6 10 6.5 10 7.5s-.75 1.402-1.484 1.741L8.824 11H10.5l1-5H15l-.205 1H12.5l-.313 1.5h1.53l-.142 1H12l-.245 1.5h2.45L14 12H7.366L7 9.5h-.652l.183-1h1.011c.44 0 .9-.342.958-.737C8.5 7.38 8.134 7 7.74 7H3Z" fill="#F0F3FA"/></svg>
